X:1
T: Miss Jane McInnes of Dandaleith
C:William Marshall
R:Strathspey
Q: 128
K:A
M:4/4
L:1/16
|:c2|EE3 E3F =G6 B2|AA3 A3c edcB A2c2|EE3 E3G =G6 cd|e3c d3B cA3 A2c2|
EE3 E3F =G6 B2|AA3 A3c edcB A2c2|EE3 E3G =G6 cd|e3c d3B cA3 A2g2|
a4 e3g agfe cA3|B=g3 dg3 B=G3 G2f^g|a3e gb3 a3e cA3|f3a gb3 aA3 A2fg|
a3e f3d ce3 c3A|B=g3 dg3 B=G3 G3B|cA3 AAA2 a4 g3b|agfe a3e cA3 A2:|
